src/icons/outline/symbols/legal-scale.svg

<svg width="24" height="24" viewBox="0 0 24 24" fill="none" xmlns="http://www.w3.org/2000/svg">
<g clip-path="url(#clip0_4785_325)">
<path fill-rule="evenodd" clip-rule="evenodd" d="M11.9932 0.999878C12.9512 0.999878 13.7729 1.61148 14.0869 2.46375H18.4639C18.7822 2.41759 19.1088 2.57105 19.2646 2.88269L22.916 10.1884C23.1103 10.567 22.957 11.0281 22.5684 11.2225C22.4559 11.2737 22.343 11.3036 22.2305 11.3036H22.2207C21.9446 11.3036 21.6681 11.1502 21.5352 10.8739L18.5771 4.95496L15.6143 10.8846C15.4813 11.1507 15.2048 11.3046 14.9287 11.3046H14.9189C14.8065 11.3046 14.6833 11.2737 14.5811 11.2225C14.2027 11.0281 14.0493 10.5669 14.2334 10.1884L17.3271 3.99792H14.0869C13.8612 4.61016 13.3735 5.098 12.7617 5.3241V21.4647H16.3711L16.4482 21.4686C16.832 21.5083 17.1376 21.839 17.1377 22.2323C17.1377 22.6517 16.7902 22.9997 16.3711 22.9999H7.60645C7.18715 22.9999 6.83984 22.6518 6.83984 22.2323C6.8399 21.8128 7.18718 21.4647 7.60645 21.4647H11.2266V5.32507C10.6143 5.09916 10.1262 4.61054 9.90039 3.99792H6.6709L9.76465 10.1884C9.95896 10.567 9.80561 11.0281 9.41699 11.2225C9.30451 11.2737 9.19159 11.3036 9.0791 11.3036H9.06934C8.79321 11.3036 8.51674 11.1502 8.38379 10.8739L5.42285 4.9491L2.46191 10.8739C2.32901 11.1399 2.05338 11.3045 1.77734 11.3046H1.7666C1.65431 11.3045 1.53181 11.2736 1.42969 11.2225C1.0513 11.0281 0.89795 10.567 1.08203 10.1884L4.70312 2.94128C4.77106 2.77179 4.90117 2.62503 5.08105 2.53503C5.2272 2.46395 5.38563 2.44188 5.53613 2.46375H9.90039C10.2144 1.61161 11.0353 1.00006 11.9932 0.999878ZM11.9932 2.53503C11.6176 2.53526 11.3023 2.83775 11.2979 3.22253V3.23914C11.3023 3.62375 11.6076 3.92641 11.9932 3.92664C12.3798 3.92664 12.6863 3.6222 12.6895 3.23621V3.22449C12.6863 2.83853 12.3798 2.53503 11.9932 2.53503Z" fill="#3C3B44"/>
<path fill-rule="evenodd" clip-rule="evenodd" d="M9.06934 11.9999C9.48844 12.0001 9.83594 12.3481 9.83594 12.7675C9.83584 15.2027 7.85187 17.1874 5.41797 17.1874C2.98406 17.1874 1.00009 15.2027 1 12.7675C1 12.3481 1.34749 12.0001 1.7666 11.9999H9.06934ZM2.63672 13.535C2.97434 14.7525 4.08864 15.6532 5.41797 15.6532C6.66414 15.6532 7.72139 14.8616 8.12695 13.7596L8.19922 13.535H2.63672Z" fill="#3C3B44"/>
<path fill-rule="evenodd" clip-rule="evenodd" d="M22.2207 11.9999C22.6398 12.0001 22.9873 12.3481 22.9873 12.7675C22.9872 15.2027 21.0032 17.1874 18.5693 17.1874C16.1354 17.1874 14.1515 15.2027 14.1514 12.7675C14.1514 12.3481 14.4989 12.0001 14.918 11.9999H22.2207ZM15.7881 13.535C16.1257 14.7525 17.24 15.6532 18.5693 15.6532C19.8155 15.6532 20.8728 14.8616 21.2783 13.7596L21.3506 13.535H15.7881Z" fill="#3C3B44"/>
</g>
<defs>
<clipPath id="clip0_4785_325">
<rect width="24" height="24" fill="white"/>
</clipPath>
</defs>
</svg>

<svg xmlns="http://www.w3.org/2000/svg" width="24" height="24" fill="none" viewBox="0 0 24 24"><g clip-path="url(#a)"><path fill="currentColor" d="M11.993 1c.958 0 1.776.612 2.09 1.464h4.4a.76.76 0 0 1 .782.419l3.651 7.305a.764.764 0 0 1-.348 1.034.8.8 0 0 1-.338.082h-.01a.76.76 0 0 1-.685-.43l-2.958-5.92-2.963 5.93a.77.77 0 0 1-.685.42h-.01a.8.8 0 0 1-.338-.082.78.78 0 0 1-.348-1.034l3.094-6.19h-3.244a2.24 2.24 0 0 1-1.321 1.322v16.145h3.61c.418 0 .766.348.766.767S16.79 23 16.37 23H7.606a.773.773 0 0 1-.766-.768c0-.42.347-.767.766-.767h3.62V5.32a2.24 2.24 0 0 1-1.323-1.323H6.671l3.094 6.19a.764.764 0 0 1-.348 1.034.8.8 0 0 1-.338.082h-.01a.76.76 0 0 1-.685-.43L5.423 4.948l-2.961 5.926a.78.78 0 0 1-.685.43h-.01a.8.8 0 0 1-.337-.082.78.78 0 0 1-.348-1.034l3.65-7.305.003-.007a.78.78 0 0 1 .346-.341.8.8 0 0 1 .233-.07l.013-.001a1 1 0 0 1 .116-.005h.046l.042.005h4.372A2.23 2.23 0 0 1 11.993 1M9.07 12c.42 0 .767.348.767.768a4.427 4.427 0 0 1-4.418 4.42A4.427 4.427 0 0 1 1 12.767c0-.42.347-.768.767-.768zm13.152 0c.419 0 .766.348.766.768a4.427 4.427 0 0 1-4.418 4.42 4.427 4.427 0 0 1-4.418-4.42c0-.42.348-.768.767-.768zM2.637 13.535a2.89 2.89 0 0 0 2.781 2.118c1.33 0 2.444-.9 2.781-2.118zm13.151 0a2.89 2.89 0 0 0 2.781 2.118c1.33 0 2.444-.9 2.782-2.118zm-3.795-11a.696.696 0 1 0 .002 1.393.696.696 0 0 0-.002-1.393"/></g><defs><clipPath id="a"><path fill="currentColor" d="M0 0h24v24H0z"/></clipPath></defs></svg>
